src/assets/img/tech/nodejs.svg

<svg version="1.2" baseProfile="tiny" xmlns="http://www.w3.org/2000/svg" width="400" height="400"><path fill="#689F63" d="M198.133 312.43a6.842 6.842 0 0 1-3.456-.934l-11.114-6.585c-1.634-.933-.841-1.261-.28-1.447 2.195-.747 2.662-.935 4.997-2.242.28-.187.561-.093.841.048l8.499 5.043c.327.141.747.141 1.027 0l33.156-19.146c.326-.187.514-.514.514-.887v-38.292c0-.374-.188-.701-.514-.887l-33.156-19.146c-.28-.188-.7-.188-1.027 0l-33.109 19.146c-.327.14-.561.513-.561.887v38.292c0 .327.234.7.514.887l9.105 5.23c4.903 2.475 7.939-.467 7.939-3.362v-37.778c0-.561.42-.934.981-.934h4.156c.56 0 .98.373.98.934v37.778c0 6.585-3.596 10.367-9.806 10.367-1.915 0-3.456 0-7.659-2.102l-8.686-4.996c-2.148-1.262-3.502-3.55-3.502-6.024v-38.292c0-2.476 1.354-4.811 3.502-6.024l33.155-19.192c2.102-1.168 4.904-1.168 7.005 0l33.155 19.192c2.147 1.214 3.456 3.549 3.456 6.024v38.292a6.981 6.981 0 0 1-3.456 6.024l-33.155 19.146a7.16 7.16 0 0 1-3.502.934"/><path fill="#689F63" d="M208.36 286.045c-14.477 0-17.512-6.678-17.512-12.234 0-.56.42-.98.934-.98h4.296c.466 0 .84.327.934.795.654 4.389 2.568 6.583 11.348 6.583 7.005 0 9.946-1.587 9.946-5.276 0-2.147-.84-3.736-11.674-4.81-9.106-.888-14.71-2.896-14.71-10.134 0-6.678 5.65-10.693 15.083-10.693 10.647 0 15.924 3.689 16.577 11.628 0 .279-.093.514-.279.746a.948.948 0 0 1-.701.281h-4.296a.955.955 0 0 1-.934-.748c-1.027-4.576-3.549-6.07-10.367-6.07-7.611 0-8.499 2.662-8.499 4.67 0 2.429 1.028 3.129 11.348 4.483 10.18 1.354 15.037 3.269 15.037 10.413 0 7.238-6.07 11.395-16.578 11.395m40.394-40.628h1.121c.934 0 1.12-.607 1.12-.98 0-.981-.7-.981-1.074-.981h-1.12l-.047 1.961zm-1.354-3.13h2.476c.841 0 2.521 0 2.521 1.916 0 1.307-.841 1.587-1.354 1.728.98.094 1.074.747 1.168 1.634.093.607.187 1.588.373 1.915h-1.494a95.208 95.208 0 0 1-.28-2.242c-.093-.42-.233-.606-.747-.606h-1.261v2.849h-1.401v-7.194zm-2.942 3.597a5.37 5.37 0 0 0 5.37 5.37c2.941 0 5.37-2.476 5.37-5.37 0-2.989-2.475-5.37-5.417-5.37a5.331 5.331 0 0 0-5.323 5.37m11.768 0c0 3.503-2.896 6.396-6.397 6.396-3.503 0-6.397-2.848-6.397-6.396 0-3.597 2.941-6.397 6.397-6.397 3.408 0 6.351 2.801 6.351 6.397"/><path fill-rule="evenodd" fill="#343434" d="M95.445 162.671c0-1.541-.794-2.942-2.148-3.689l-35.163-20.22a3.517 3.517 0 0 0-1.915-.561h-.374a3.52 3.52 0 0 0-1.915.561l-35.164 20.22c-1.354.747-2.148 2.148-2.148 3.689l.093 54.495c0 .748.374 1.448 1.027 1.821.654.421 1.494.421 2.102 0l20.92-11.954c1.307-.793 2.148-2.194 2.148-3.689v-25.45c0-1.541.794-2.942 2.102-3.689l8.919-5.137a4.161 4.161 0 0 1 2.102-.561c.747 0 1.494.187 2.101.561l8.919 5.137c1.308.747 2.102 2.148 2.102 3.689v25.45c0 1.495.841 2.896 2.148 3.689l20.874 11.954a2.196 2.196 0 0 0 2.148 0c.654-.373 1.028-1.073 1.028-1.821l.094-54.495zm165.916 28.345c0 .374-.186.747-.513.934l-12.095 6.958a1.098 1.098 0 0 1-1.074 0l-12.048-6.958a1.028 1.028 0 0 1-.561-.934V177.1c0-.374.187-.748.514-.934l12.095-6.958a1.098 1.098 0 0 1 1.074 0l12.048 6.958c.374.187.56.56.56.934v13.916zm3.27-103.248c-.654-.374-1.447-.374-2.102 0s-1.074 1.074-1.074 1.868v53.936c0 .514-.279 1.027-.747 1.308a1.684 1.684 0 0 1-1.494 0l-8.779-5.09a4.31 4.31 0 0 0-4.25 0l-35.163 20.313c-1.307.747-2.147 2.148-2.147 3.643v40.627c0 1.541.841 2.895 2.147 3.689l35.163 20.313a4.31 4.31 0 0 0 4.25 0l35.164-20.313c1.307-.795 2.147-2.195 2.147-3.689V103.131a4.208 4.208 0 0 0-2.195-3.689l-20.92-11.674zm117.117 88.959c1.308-.747 2.102-2.148 2.102-3.689v-9.807c0-1.541-.794-2.942-2.102-3.689l-34.93-20.313a4.398 4.398 0 0 0-4.296 0l-35.163 20.313c-1.308.747-2.102 2.148-2.102 3.689v40.58c0 1.542.794 2.942 2.147 3.689l34.93 19.94a4.136 4.136 0 0 0 4.157 0l21.153-11.721a2.14 2.14 0 0 0 1.074-1.868 2.12 2.12 0 0 0-1.074-1.821l-35.35-20.313c-.701-.374-1.074-1.074-1.074-1.868v-12.702c0-.794.373-1.495 1.027-1.868l11.021-6.351a2.11 2.11 0 0 1 2.102 0l11.021 6.351a2.14 2.14 0 0 1 1.074 1.868v9.993c0 .747.42 1.448 1.074 1.821a2.11 2.11 0 0 0 2.102 0l21.107-12.234zm0 0"/><path fill-rule="evenodd" fill="#689F63" d="M344.157 174.812c.233-.14.56-.14.793 0l6.771 3.923c.233.14.421.374.421.7v7.799c0 .28-.188.56-.421.7l-6.771 3.876a.801.801 0 0 1-.793 0l-6.725-3.876a.77.77 0 0 1-.421-.7v-7.799c0-.327.141-.561.374-.7l6.772-3.923zm0 0"/><path fill="#4D9A41" d="M191.362 203.718v-40.44a4.194 4.194 0 0 0-2.102-3.642l-34.976-20.174a4.303 4.303 0 0 0-4.25 0l-34.977 20.174a4.194 4.194 0 0 0-2.102 3.642v40.44c0 1.495.794 2.896 2.102 3.643l34.977 20.173a4.09 4.09 0 0 0 4.25 0l34.976-20.173a4.197 4.197 0 0 0 2.102-3.643z"/><path fill="#5A9A51" d="M150.082 227.533a3.77 3.77 0 0 0 2.429.562c.28 0 .56-.047.84-.141l36.891-67.525c-.28-.327-.607-.561-.981-.793l-22.928-13.216-12.095-6.958a3.143 3.143 0 0 0-1.074-.467l-39.319 67.245c.327.467.747.841 1.214 1.12l30.026 17.324 4.997 2.849z"/><path fill="none" d="M191.316 204.465l-.047-.08v.232c.012-.053.037-.099.047-.152z"/><path fill="#54A242" d="M189.261 207.36a4.354 4.354 0 0 0 2.008-2.743v-.232l-38.292-65.39c-.28-.093-.56-.093-.887-.093h-.327c-.607.046-1.167.233-1.728.56l-34.883 20.127 37.638 68.506a4.504 4.504 0 0 0 1.495-.562l34.976-20.173z"/></svg>

<?xml version="1.0" encoding="UTF-8" standalone="no"?>
<!DOCTYPE svg PUBLIC "-//W3C//DTD SVG 1.1//EN" "http://www.w3.org/Graphics/SVG/1.1/DTD/svg11.dtd">
<svg width="100%" height="100%" viewBox="0 0 256 256" version="1.1" xmlns="http://www.w3.org/2000/svg" xmlns:xlink="http://www.w3.org/1999/xlink" xml:space="preserve" xmlns:serif="http://www.serif.com/" style="fill-rule:evenodd;clip-rule:evenodd;stroke-linejoin:round;stroke-miterlimit:2;">
    <g transform="matrix(0.509215,0,0,0.509215,26.0379,26.178)">
        <path d="M198.133,312.43C196.919,312.431 195.726,312.108 194.677,311.496L183.563,304.911C181.929,303.978 182.722,303.65 183.283,303.464C185.478,302.717 185.945,302.529 188.28,301.222C188.56,301.035 188.841,301.129 189.121,301.27L197.62,306.313C197.947,306.454 198.367,306.454 198.647,306.313L231.803,287.167C232.129,286.98 232.317,286.653 232.317,286.28L232.317,247.988C232.317,247.614 232.129,247.287 231.803,247.101L198.647,227.955C198.367,227.767 197.947,227.767 197.62,227.955L164.511,247.101C164.184,247.241 163.95,247.614 163.95,247.988L163.95,286.28C163.95,286.607 164.184,286.98 164.464,287.167L173.569,292.397C178.472,294.872 181.508,291.93 181.508,289.035L181.508,251.257C181.508,250.696 181.928,250.323 182.489,250.323L186.645,250.323C187.205,250.323 187.625,250.696 187.625,251.257L187.625,289.035C187.625,295.62 184.029,299.402 177.819,299.402C175.904,299.402 174.363,299.402 170.16,297.3L161.474,292.304C159.326,291.042 157.972,288.754 157.972,286.28L157.972,247.988C157.972,245.512 159.326,243.177 161.474,241.964L194.629,222.772C196.731,221.604 199.533,221.604 201.634,222.772L234.789,241.964C236.936,243.178 238.245,245.513 238.245,247.988L238.245,286.28C238.244,288.756 236.926,291.054 234.789,292.304L201.634,311.45C200.566,312.056 199.36,312.378 198.132,312.384" style="fill:rgb(104,159,99);fill-rule:nonzero;"/>
        <path d="M208.36,286.045C193.883,286.045 190.848,279.367 190.848,273.811C190.848,273.251 191.268,272.831 191.782,272.831L196.078,272.831C196.544,272.831 196.918,273.158 197.012,273.626C197.666,278.015 199.58,280.209 208.36,280.209C215.365,280.209 218.306,278.622 218.306,274.933C218.306,272.786 217.466,271.197 206.632,270.123C197.526,269.235 191.922,267.227 191.922,259.989C191.922,253.311 197.572,249.296 207.005,249.296C217.652,249.296 222.929,252.985 223.582,260.924C223.582,261.203 223.489,261.438 223.303,261.67C223.118,261.857 222.864,261.958 222.602,261.951L218.306,261.951C217.859,261.952 217.469,261.639 217.372,261.203C216.345,256.627 213.823,255.133 207.005,255.133C199.394,255.133 198.506,257.795 198.506,259.803C198.506,262.232 199.534,262.932 209.854,264.286C220.034,265.64 224.891,267.555 224.891,274.699C224.891,281.937 218.821,286.094 208.313,286.094M248.707,245.466L249.828,245.466C250.762,245.466 250.948,244.859 250.948,244.486C250.948,243.505 250.248,243.505 249.874,243.505L248.754,243.505L248.707,245.466ZM247.353,242.336L249.829,242.336C250.67,242.336 252.35,242.336 252.35,244.252C252.35,245.559 251.509,245.839 250.996,245.98C251.976,246.074 252.07,246.727 252.164,247.614C252.257,248.221 252.351,249.202 252.537,249.529L251.043,249.529C250.941,248.783 250.847,248.035 250.763,247.287C250.67,246.867 250.53,246.681 250.016,246.681L248.755,246.681L248.755,249.53L247.354,249.53L247.354,242.336L247.353,242.336ZM244.411,245.933C244.411,248.879 246.835,251.303 249.781,251.303C252.722,251.303 255.151,248.827 255.151,245.933C255.151,242.944 252.676,240.563 249.734,240.563C246.812,240.567 244.411,242.972 244.411,245.894C244.411,245.907 244.411,245.92 244.411,245.933M256.179,245.933C256.179,249.436 253.283,252.329 249.782,252.329C246.279,252.329 243.385,249.481 243.385,245.933C243.385,242.336 246.326,239.536 249.782,239.536C253.19,239.536 256.133,242.337 256.133,245.933" style="fill:rgb(104,159,99);fill-rule:nonzero;"/>
        <path d="M95.445,162.671C95.445,161.13 94.651,159.729 93.297,158.982L58.134,138.762C57.563,138.394 56.898,138.199 56.219,138.201L55.845,138.201C55.166,138.199 54.501,138.394 53.93,138.762L18.766,158.982C17.412,159.729 16.618,161.13 16.618,162.671L16.711,217.166C16.711,217.914 17.085,218.614 17.738,218.987C18.392,219.408 19.232,219.408 19.84,218.987L40.76,207.033C42.067,206.24 42.908,204.839 42.908,203.344L42.908,177.894C42.908,176.353 43.702,174.952 45.01,174.205L53.929,169.068C54.567,168.698 55.293,168.504 56.031,168.507C56.778,168.507 57.525,168.694 58.132,169.068L67.051,174.205C68.359,174.952 69.153,176.353 69.153,177.894L69.153,203.344C69.153,204.839 69.994,206.24 71.301,207.033L92.175,218.987C92.841,219.361 93.657,219.361 94.323,218.987C94.977,218.614 95.351,217.914 95.351,217.166L95.445,162.671ZM261.361,191.016C261.361,191.39 261.175,191.763 260.848,191.95L248.753,198.908C248.42,199.095 248.012,199.095 247.679,198.908L235.631,191.95C235.281,191.772 235.063,191.408 235.07,191.016L235.07,177.1C235.07,176.726 235.257,176.352 235.584,176.166L247.679,169.208C248.012,169.021 248.42,169.021 248.753,169.208L260.801,176.166C261.175,176.353 261.361,176.726 261.361,177.1L261.361,191.016ZM264.631,87.768C263.977,87.394 263.184,87.394 262.529,87.768C261.874,88.142 261.455,88.842 261.455,89.636L261.455,143.572C261.455,144.086 261.176,144.599 260.708,144.88C260.238,145.113 259.684,145.113 259.214,144.88L250.435,139.79C249.118,139.044 247.502,139.044 246.185,139.79L211.022,160.103C209.715,160.85 208.875,162.251 208.875,163.746L208.875,204.373C208.875,205.914 209.716,207.268 211.022,208.062L246.185,228.375C247.502,229.121 249.118,229.121 250.435,228.375L285.599,208.062C286.906,207.267 287.746,205.867 287.746,204.373L287.746,103.131C287.744,101.595 286.9,100.177 285.551,99.442L264.631,87.768ZM381.748,176.727C383.056,175.98 383.85,174.579 383.85,173.038L383.85,163.231C383.85,161.69 383.056,160.289 381.748,159.542L346.818,139.229C345.485,138.483 343.855,138.483 342.522,139.229L307.359,159.542C306.051,160.289 305.257,161.69 305.257,163.231L305.257,203.811C305.257,205.353 306.051,206.753 307.404,207.5L342.334,227.44C343.617,228.186 345.208,228.186 346.491,227.44L367.644,215.719C368.311,215.336 368.722,214.621 368.718,213.851C368.71,213.097 368.3,212.402 367.644,212.03L332.294,191.717C331.593,191.343 331.22,190.643 331.22,189.849L331.22,177.147C331.22,176.353 331.593,175.652 332.247,175.279L343.268,168.928C343.918,168.555 344.72,168.555 345.37,168.928L356.391,175.279C357.058,175.662 357.469,176.377 357.465,177.147L357.465,187.14C357.465,187.887 357.885,188.588 358.539,188.961C359.189,189.334 359.991,189.334 360.641,188.961L381.748,176.727Z" style="fill:rgb(52,52,52);"/>
        <path d="M344.157,174.812C344.39,174.672 344.717,174.672 344.95,174.812L351.721,178.735C351.954,178.875 352.142,179.109 352.142,179.435L352.142,187.234C352.142,187.514 351.954,187.794 351.721,187.934L344.95,191.81C344.705,191.95 344.402,191.95 344.157,191.81L337.432,187.934C337.17,187.801 337.006,187.528 337.011,187.234L337.011,179.435C337.011,179.108 337.152,178.874 337.385,178.735L344.157,174.812Z" style="fill:rgb(104,159,99);"/>
        <path d="M191.362,203.718L191.362,163.278C191.365,161.777 190.561,160.385 189.26,159.636L154.284,139.462C152.968,138.714 151.35,138.714 150.034,139.462L115.057,159.636C113.756,160.385 112.952,161.777 112.955,163.278L112.955,203.718C112.955,205.213 113.749,206.614 115.057,207.361L150.034,227.534C151.338,228.327 152.98,228.327 154.284,227.534L189.26,207.361C190.561,206.612 191.364,205.219 191.362,203.718Z" style="fill:rgb(77,154,65);fill-rule:nonzero;"/>
        <path d="M150.082,227.533C150.804,227.99 151.661,228.189 152.511,228.095C152.791,228.095 153.071,228.048 153.351,227.954L190.242,160.429C189.962,160.102 189.635,159.868 189.261,159.636L166.333,146.42L154.238,139.462C153.912,139.24 153.548,139.082 153.164,138.995L113.845,206.24C114.172,206.707 114.592,207.081 115.059,207.36L145.085,224.684L150.082,227.533Z" style="fill:rgb(90,154,81);fill-rule:nonzero;"/>
        <path d="M191.316,204.465L191.269,204.385L191.269,204.617C191.281,204.564 191.306,204.518 191.316,204.465Z" style="fill:none;fill-rule:nonzero;"/>
        <path d="M189.261,207.36C190.274,206.756 190.999,205.765 191.269,204.617L191.269,204.385L152.977,138.995C152.697,138.902 152.417,138.902 152.09,138.902L151.763,138.902C151.156,138.948 150.596,139.135 150.035,139.462L115.152,159.589L152.79,228.095C153.318,227.998 153.824,227.808 154.285,227.533L189.261,207.36Z" style="fill:rgb(84,162,66);fill-rule:nonzero;"/>
    </g>
</svg>
